!! 00010] TT[TB
!! Eigene Aufnahme
!!!OTL: Jinse de shuguang The golden beam
!!!ARE: Neimeng
!! Ethnic Group: Menggu
!! MM, S. 1383
!!!SCT: C0576
!!!YEM: Copyright 1995, estate of Helmut Schaffrath.
**kern
*ICvox
*Ivox
*M3/4
*k[]
*C:
{2e
8g
8e
=1
2d
4c
=2
2A
8c
8A
=3
2G
4A}
=4
{2c
8G
8A
=5
2c
4d
=6
[2.e
=7
2.e]}
=8
{2g
8a
8g
=9
2e
4g
=10
2a
8g
8e
=11
2d
4e}
=12
{2a
4cc
=13
2e
4d
=14
[2.c
=15
2.c]}
=16
{2cc
4cc
=17
2cc
4ee
=18
2dd
8cc
8a
=19
2g
4e}
==
!!!AGN: NN
!! Saenger: Chao Lun Batou, der das Buch nur zum Nachschlagen
!!    benutzte und ansonsten auswendig sang. Da er aus dem Osten der
!!    Neimeng kommt, kennt er nicht so viele Lieder des Westens.
!!    Alle Lieder wurden mit erkaelteter, halber Stimme in meinem
!!    Zimmer gesungen. FOTO VORHANDEN (DIAS)  31.3.87
!!    In der Vorlage keine ~ vorhanden!
!!    Neuer Anfang (bei 203) wegen Versinger.
!!!ONB: ESAC (Essen Associative Code) Database: CHINA
!!!AMT: simple triple
!!!AIN: vox
!!!EED: Helmut Schaffrath
!!!EEV: 1.0
*-
!!!ONB: Tied note syntax fixed by Craig Sapp, 2004/05/03/
